!!!OTL: 1648. Run gebt uns auch ein Peust Ei!
!!!ARE: Europa, Mitteleuropa, Deutschland, Koeln
!!!SCT: K1648
!!!TXL: @@NDS
!!!YEM: Copyright 1995, estate of Helmut Schaffrath.
**kern	**text
*clefG2	*
*M2/4	*
*k[f#c#]	*
*D:	*
{8A	Nun
=1	=1
8d	gebt
8e	uns
8f#	auch
8g	ein
=2	=2
4a	Peust-
8a	-Ei!
8r}	.
=3	=3
{4dd^	[Fei
8cc#	Ro-
8b	-ſen-
=4	=4
8b/	-blü-
8a	-me-
8a}	-lein!]
{8a	dat
=5	=5
8dd	ſchlon
8a	wir
8g	in
8f#	de
=6	=6
8e	Pann
8f#	ent-
8g	-ʒwei.
8r}	.
=7	=7
{4g^	[Fei
8f#	Ro-
8e	-ſen-
=8	=8
8f#	-blü-
8g	-me-
8a	-lein,
8r}	.
=9	=9
{8b/	wa-
8g	-cker
8e	iſt
8c#	das
=10	=10
8e	Mü-
8d	-de-
8d}	-lein!]
==	==
!!!AGN: Kinder -, Ansinge - Lied, Bettel - Reim
!!!ONB: ESAC (Essen Associative Code) Database: KINDER
!!!AMT: simple duple
!!!AIN: vox
!!!EED: Helmut Schaffrath
!!!EEV: 1.0
!!Neuere Mel. unfern Koeln gehoert 1848.
!!!GTL: XIV. Ansingelieder und Bettelreime der Jugend bei den Umzuegen an den Jahresfesten.
!!!URL-scan: https://archive.org/details/DeutschesKinderliedUndKinderspiel/page/354/mode/1up
!!!ENC: Anna Maria Matuszewska
!!!EEV: 2024/02/09
*-	*-
